build/dist/assets/images/services/services-6.svg

<svg width="68" height="110" viewBox="0 0 68 110" fill="none" xmlns="http://www.w3.org/2000/svg">
<path fill-rule="evenodd" clip-rule="evenodd" d="M36.4805 99.1896C36.4805 102.918 39.4409 105.926 43.11 105.926C46.3206 105.926 49.0725 103.596 49.6562 100.418L54.6179 73.0488C55.2433 69.4899 54.8264 65.8886 53.4504 62.584L49.6145 64.2363C50.6569 66.7784 50.9904 69.5322 50.4901 72.2438L45.5284 99.6133C45.3199 100.8 44.3192 101.647 43.11 101.647C41.7758 101.647 40.65 100.545 40.65 99.1472V74.0232C40.65 70.5914 37.8982 67.7952 34.5208 67.7952C31.1435 67.7952 28.3917 70.5914 28.3917 74.0232V99.1472C28.3917 100.503 27.3076 101.647 25.9316 101.647C24.7642 101.647 23.7218 100.8 23.5133 99.6133L18.5516 72.2438C17.3841 65.8039 20.6781 59.4911 26.5988 56.9067L53.8257 44.9166L53.9925 44.8319C60.7888 40.9765 65 33.6892 65 25.8088C65 13.8188 55.4101 4.07422 43.6104 4.07422H25.3896C13.5899 4.07422 4 13.8188 4 25.8088C4 37.7989 13.5899 47.5434 25.3896 47.5434V43.3067C15.8831 43.3067 8.16951 35.4687 8.16951 25.8088C8.16951 16.149 15.8831 8.31099 25.3896 8.31099H43.6104C53.1169 8.31099 60.8305 16.149 60.8722 25.8088C60.8722 32.1216 57.4949 37.9683 52.0745 41.0612L24.931 53.0089C17.2174 56.3983 12.9228 64.6176 14.4238 73.0064L19.4272 100.418C19.9692 103.596 22.7211 105.926 25.9316 105.926C29.6008 105.926 32.5612 102.918 32.5612 99.1896V74.0656C32.5612 72.964 33.4368 72.0743 34.5208 72.0743C35.6049 72.0743 36.4805 72.964 36.4805 74.0656V99.1896ZM21.7846 25.1486C22.0506 25.4195 22.4114 25.5717 22.7877 25.5717C23.1639 25.5717 23.5247 25.4195 23.7907 25.1486C24.0567 24.8776 24.2062 24.5101 24.2062 24.1269V21.8153C24.2062 21.0172 23.571 20.3705 22.7877 20.3705C22.0043 20.3705 21.3691 21.0172 21.3691 21.8153V24.1269C21.3691 24.5101 21.5186 24.8776 21.7846 25.1486ZM45.4072 25.1486C45.6732 25.4195 46.034 25.5717 46.4102 25.5717C46.7864 25.5717 47.1472 25.4195 47.4132 25.1486C47.6793 24.8776 47.8287 24.5101 47.8287 24.1269V21.8153C47.8287 21.0172 47.1936 20.3705 46.4102 20.3705C45.6268 20.3705 44.9917 21.0172 44.9917 21.8153V24.1269C44.9917 24.5101 45.1411 24.8776 45.4072 25.1486ZM32.3006 26.4397C33.0223 26.7744 33.806 26.9477 34.5989 26.9479C35.3919 26.9477 36.1756 26.7743 36.8972 26.4396C37.6188 26.1049 38.2617 25.6166 38.7824 25.0075C39.0296 24.7186 39.1539 24.3415 39.1282 23.9592C39.1024 23.5769 38.9285 23.2207 38.6449 22.969C38.3613 22.7173 37.9911 22.5906 37.6157 22.6168C37.2404 22.6431 36.8907 22.8202 36.6435 23.109C36.1273 23.7126 35.3821 24.0586 34.5989 24.0586C33.8157 24.0586 33.0705 23.7126 32.5544 23.109C32.3072 22.8202 31.9575 22.6431 31.5821 22.6168C31.2068 22.5906 30.8366 22.7173 30.553 22.969C30.2693 23.2207 30.0955 23.5769 30.0697 23.9592C30.0439 24.3415 30.1683 24.7186 30.4155 25.0075C30.9362 25.6166 31.579 26.1049 32.3006 26.4397Z" fill="#00AEDA"/>
</svg>

<svg width="68" height="110" fill="none" xmlns="http://www.w3.org/2000/svg"><path fill-rule="evenodd" clip-rule="evenodd" d="M36.48 99.19c0 3.728 2.96 6.736 6.63 6.736 3.21 0 5.962-2.33 6.546-5.508l4.962-27.37a18.7 18.7 0 00-1.168-10.464l-3.836 1.652c1.043 2.542 1.376 5.296.876 8.008l-4.962 27.37a2.435 2.435 0 01-2.418 2.033c-1.334 0-2.46-1.102-2.46-2.5V74.023c0-3.432-2.752-6.228-6.13-6.228-3.377 0-6.128 2.796-6.128 6.228v25.124c0 1.356-1.084 2.5-2.46 2.5a2.468 2.468 0 01-2.419-2.034l-4.961-27.37c-1.168-6.44 2.126-12.752 8.047-15.336l27.227-11.99.166-.085C60.79 40.977 65 33.689 65 25.809c0-11.99-9.59-21.735-21.39-21.735H25.39C13.59 4.074 4 13.82 4 25.81s9.59 21.734 21.39 21.734v-4.236c-9.507 0-17.22-7.838-17.22-17.498s7.713-17.5 17.22-17.5h18.22c9.507 0 17.22 7.838 17.262 17.498 0 6.313-3.377 12.16-8.797 15.252L24.93 53.01c-7.714 3.39-12.008 11.609-10.507 19.997l5.003 27.412c.542 3.178 3.294 5.508 6.505 5.508 3.669 0 6.63-3.008 6.63-6.736V74.066c0-1.102.875-1.992 1.959-1.992s1.96.89 1.96 1.992V99.19zM21.785 25.149c.266.27.626.423 1.003.423.376 0 .737-.152 1.003-.423a1.46 1.46 0 00.415-1.022v-2.312c0-.798-.635-1.445-1.418-1.445-.784 0-1.419.647-1.419 1.445v2.312c0 .383.15.75.416 1.022zm23.622 0c.266.27.627.423 1.003.423.376 0 .737-.152 1.003-.423a1.46 1.46 0 00.416-1.022v-2.312c0-.798-.635-1.445-1.419-1.445-.783 0-1.418.647-1.418 1.445v2.312c0 .383.15.75.415 1.022zm-13.106 1.29a5.464 5.464 0 004.597 0 5.558 5.558 0 001.884-1.431 1.462 1.462 0 00-.137-2.039 1.403 1.403 0 00-2.002.14 2.69 2.69 0 01-2.044.95 2.69 2.69 0 01-2.045-.95 1.403 1.403 0 00-2.001-.14 1.462 1.462 0 00-.137 2.038A5.56 5.56 0 0032.3 26.44z" fill="#00AEDA"/></svg>
